X:7778
T:Jacks Carvatt. HA01
T:Jenny Come Tie My Cravat. HA01
M:6/4
L:1/4
Q:150
S:Henry Atkinson MS,Hartburn,Northumberland,1694/5 transcribed John Stokoe 1883
O:England
A:Hartburn nr. Morpeth
N:Clef missing from original
H:First appears in Playford 7th ed. of 1678, substantially the same tune,
H:but different in so many details as to suggest to me that H.A. could
H:not have got it off Playford
Z:vmp.Cherri Graebe
K:D Major
A|FDFAFA|ECEG2E|FDFAFA|f/g/afd2:|!
|:"*"z|(f/g/)afe/f/gf|eceg2e|f/g/afe/f/ge|cAcd2:|]
%rest added
